paymentMethods/mobilePay.svg

<svg width="128" height="64" viewBox="0 0 128 64" fill="none" xmlns="http://www.w3.org/2000/svg">
<rect width="128" height="64" rx="6" fill="white"/>
<path d="M20.0694 50.689C18.7907 50.6891 17.6379 49.9192 17.148 48.7382L6.24117 22.4083C5.57389 20.7973 6.33882 18.9503 7.94978 18.2828L19.3736 13.5515C20.1471 13.2309 21.0164 13.2309 21.79 13.5513C22.5636 13.8718 23.1782 14.4865 23.4985 15.2601L34.4053 41.591C35.0715 43.2016 34.3068 45.0474 32.6967 45.7149L21.2729 50.4484C20.8915 50.6069 20.4825 50.6887 20.0694 50.689ZM20.582 15.0098C20.3906 15.0101 20.2011 15.0482 20.0244 15.1219L8.60006 19.8533C8.24295 20.0012 7.95924 20.2849 7.81137 20.6421C7.6635 20.9992 7.66358 21.4004 7.81159 21.7575L18.7184 48.089C19.0271 48.8319 19.8789 49.1849 20.6226 48.878L32.0464 44.1434C32.4036 43.9955 32.6873 43.7117 32.8351 43.3546C32.983 42.9975 32.9829 42.5962 32.8349 42.2392L21.9281 15.9104C21.7023 15.366 21.1714 15.0108 20.582 15.0098Z" fill="#5A78FF"/>
<path style="mix-blend-mode:multiply" opacity="0.7" d="M24.2187 16.9964L22.6482 17.647L26.9666 28.0725L28.5371 27.422L24.2187 16.9964Z" fill="url(#paint0_linear_3_284)"/>
<path style="mix-blend-mode:multiply" opacity="0.7" d="M32.1091 40.4906L33.6797 39.8401L28.7914 28.0387L27.2209 28.6893L32.1091 40.4906Z" fill="url(#paint1_linear_3_284)"/>
<path d="M30.126 32.6681C26.8588 34.0229 24.1309 35.8903 22.3448 38.1413L17.7397 27.0194C19.8403 24.5789 22.514 22.6982 25.5209 21.5462C28.788 20.1914 32.0887 19.5357 34.893 19.9178L39.4992 31.0392C36.2881 30.7973 33.0672 31.3571 30.126 32.6681Z" fill="#5A78FF"/>
<g style="mix-blend-mode:multiply" opacity="0.4">
<path opacity="0.9" d="M30.126 32.6681C26.8588 34.0229 24.1309 35.8903 22.3448 38.1413L17.7397 27.0194C19.8403 24.5789 22.514 22.6982 25.5209 21.5462C28.788 20.1914 32.0887 19.5357 34.893 19.9178L39.4992 31.0392C36.2881 30.7973 33.0672 31.3571 30.126 32.6681Z" fill="url(#paint2_linear_3_284)"/>
<path opacity="0.7" d="M30.126 32.6681C26.8588 34.0229 24.1309 35.8903 22.3448 38.1413L17.7397 27.0194C19.8403 24.5789 22.514 22.6982 25.5209 21.5462C28.788 20.1914 32.0887 19.5357 34.893 19.9178L39.4992 31.0392C36.2881 30.7973 33.0672 31.3571 30.126 32.6681Z" fill="url(#paint3_linear_3_284)"/>
</g>
<path d="M31.6265 36.0588C28.0901 36.0588 24.8527 36.7422 22.3438 38.137V26.8915C25.2182 25.441 28.4079 24.7269 31.6265 24.8133C35.1629 24.8133 38.4636 25.469 40.9087 26.8942V38.1397C38.0347 36.688 34.8452 35.973 31.6265 36.0588ZM49.6924 36.0691L52.5536 27.0248C52.5836 26.8995 52.6907 26.8077 52.8191 26.7972H54.2552C54.3839 26.8153 54.4922 26.9028 54.5369 27.0248L56.7642 32.731C56.8075 32.8448 56.9213 32.8557 56.9592 32.731L59.1702 27.0248C59.2149 26.9028 59.3232 26.8153 59.452 26.7972H60.888C61.0164 26.8077 61.1235 26.8995 61.1535 27.0248L63.9823 36.0691C64.0152 36.1387 64.0087 36.2206 63.9652 36.2842C63.9217 36.3478 63.8478 36.3835 63.7709 36.378H62.0639C61.9429 36.3835 61.8355 36.3012 61.8092 36.1829L59.9939 30.3087C59.9668 30.1949 59.8367 30.1949 59.7988 30.3087L57.6312 36.1396C57.5943 36.2799 57.4675 36.3779 57.3223 36.378H56.3198C56.1626 36.378 56.0814 36.2913 56.0218 36.1396L53.8108 30.3087C53.7674 30.1949 53.6536 30.1949 53.6266 30.3087L51.7678 36.1829C51.739 36.3042 51.6266 36.3867 51.5023 36.378H49.8766C49.8033 36.3769 49.7359 36.3379 49.6983 36.275C49.6608 36.212 49.6585 36.1341 49.6924 36.0691ZM64.5242 32.8177C64.4933 31.2769 65.3978 29.8707 66.8125 29.2595C68.2272 28.6484 69.8711 28.954 70.9717 30.0326C72.0724 31.1113 72.4111 32.7486 71.8287 34.1754C71.2463 35.6022 69.8585 36.5348 68.3175 36.5352C67.3145 36.5693 66.3414 36.1912 65.6247 35.4888C64.908 34.7864 64.5102 33.8211 64.5242 32.8177ZM70.1599 32.8177C70.092 31.8044 69.2254 31.0319 68.211 31.0804C67.1965 31.1289 66.4076 31.9805 66.4366 32.9957C66.4656 34.0109 67.3019 34.816 68.3175 34.8065C69.3722 34.7625 70.1919 33.8725 70.1491 32.8177H70.1599ZM75.4489 35.7928C75.308 35.679 75.1833 35.7223 75.1833 35.9174V36.1016C75.1835 36.2442 75.071 36.3613 74.9286 36.3672H73.6064C73.4621 36.3616 73.3464 36.2459 73.3409 36.1016V27.0573C73.3464 26.913 73.4621 26.7973 73.6064 26.7918H74.9991C75.1415 26.7976 75.2539 26.9148 75.2538 27.0573V29.6368C75.2538 29.821 75.3784 29.8752 75.5789 29.7343C76.1123 29.3348 76.7604 29.1181 77.4268 29.1165C79.356 29.1165 80.8354 30.7422 80.8354 32.834C80.8794 33.7898 80.5362 34.7229 79.8836 35.4225C79.2309 36.1221 78.3237 36.5291 77.3672 36.5514C76.6561 36.5438 75.9728 36.2736 75.4489 35.7928ZM78.917 32.834C78.9704 32.136 78.6282 31.467 78.0311 31.1018C77.434 30.7365 76.6826 30.7365 76.0855 31.1018C75.4884 31.467 75.1463 32.136 75.1996 32.834C75.1806 33.3397 75.3657 33.8318 75.7132 34.1997C76.0607 34.5676 76.5415 34.7804 77.0475 34.7902C77.5577 34.7789 78.0423 34.5642 78.3934 34.1937C78.7446 33.8233 78.9331 33.3279 78.917 32.8177V32.834ZM82.0004 27.4529C82.0004 26.8543 82.4857 26.3691 83.0842 26.3691C83.6828 26.3691 84.168 26.8543 84.168 27.4529C84.168 28.0515 83.6828 28.5367 83.0842 28.5367C82.4857 28.5367 82.0004 28.0515 82.0004 27.4529ZM82.098 36.1233V29.5663C82.0979 29.4238 82.2103 29.3066 82.3527 29.3008H83.7454C83.8187 29.2979 83.8901 29.3242 83.944 29.374C83.9979 29.4238 84.0297 29.493 84.0326 29.5663V36.1016C84.027 36.2459 83.9113 36.3616 83.767 36.3672H82.3527C82.2103 36.3613 82.0979 36.2442 82.098 36.1016V36.1233ZM85.5824 33.9774V27.0573C85.5823 26.9148 85.6947 26.7976 85.8371 26.7918H87.2298C87.3741 26.7973 87.4898 26.913 87.4953 27.0573V34.0207C87.4953 34.4705 87.6904 34.7686 88.1835 34.7686C88.2539 34.7686 88.3215 34.7965 88.3713 34.8463C88.4211 34.8961 88.449 34.9637 88.449 35.0341V36.1883C88.4432 36.3307 88.326 36.4431 88.1835 36.443C86.3302 36.443 85.5824 35.8361 85.5824 33.9774ZM88.9693 32.8611C88.9741 31.5523 89.6768 30.3456 90.8126 29.6954C91.9485 29.0452 93.3449 29.0504 94.4759 29.7089C95.6069 30.3675 96.3006 31.5794 96.2958 32.8882C96.2958 33.1429 96.2253 33.3542 95.9706 33.3542H91.126C91.0014 33.3542 90.958 33.4246 90.9689 33.5384C91.0893 34.3873 91.8481 34.9968 92.703 34.9311C93.2174 34.9388 93.7083 34.7162 94.0415 34.3242C94.1448 34.179 94.313 34.0939 94.4912 34.0966H95.7864C96.014 34.0966 96.1115 34.2538 96.0248 34.4759C95.2651 36.0248 93.5384 36.8461 91.8574 36.4582C90.1765 36.0703 88.9843 34.5754 88.9801 32.8502L88.9693 32.8611ZM94.1119 32.2108C94.2095 32.2108 94.2528 32.1674 94.2365 32.0536C94.0889 31.2758 93.4024 30.7175 92.6108 30.7314C91.8367 30.7307 91.1636 31.2624 90.9851 32.0157C90.958 32.1133 90.9851 32.2108 91.0989 32.2108H94.1119ZM97.4663 36.1016V27.0573C97.4661 26.9148 97.5786 26.7976 97.721 26.7918H102.159C104.186 26.7918 105.568 27.9731 105.568 29.9619C105.568 31.9507 104.002 33.1754 102.062 33.1754H99.7097C99.6382 33.1679 99.5672 33.1939 99.5174 33.2458C99.4676 33.2977 99.4446 33.3697 99.455 33.4409V36.1016C99.4495 36.2459 99.3338 36.3616 99.1895 36.3672H97.7264C97.5819 36.3642 97.4662 36.2462 97.4663 36.1016ZM102.062 31.5388C102.901 31.5123 103.562 30.8127 103.541 29.9727C103.553 29.5749 103.401 29.1896 103.12 28.9077C102.839 28.6257 102.454 28.4719 102.056 28.4825H99.6881C99.5201 28.4825 99.4496 28.5692 99.4496 28.7372V31.3004C99.4496 31.4684 99.5201 31.5551 99.6881 31.5551L102.062 31.5388ZM106.25 32.8177C106.214 31.8593 106.563 30.9263 107.22 30.2276C107.877 29.5289 108.787 29.1228 109.746 29.1003C110.438 29.1041 111.104 29.3603 111.621 29.821C111.745 29.9348 111.886 29.9186 111.886 29.7506V29.5663C111.886 29.4257 112 29.3116 112.141 29.3116H113.463C113.607 29.3172 113.723 29.4329 113.729 29.5772V34.2267C113.729 34.5789 113.853 34.736 114.097 34.7686C114.224 34.7711 114.327 34.8699 114.336 34.9962V36.2209C114.336 36.3525 114.229 36.4593 114.097 36.4593C113.165 36.4593 112.618 36.1938 112.309 35.6573C112.222 35.5164 112.125 35.4893 111.984 35.6302C111.389 36.2429 110.567 36.5839 109.713 36.5731C108.752 36.5452 107.843 36.1311 107.191 35.4243C106.54 34.7175 106.2 33.7778 106.25 32.8177ZM111.886 32.8177C111.939 32.1218 111.598 31.4546 111.003 31.0904C110.408 30.7261 109.658 30.7261 109.063 31.0904C108.468 31.4546 108.126 32.1218 108.18 32.8177C108.126 33.5137 108.468 34.1808 109.063 34.5451C109.658 34.9093 110.408 34.9093 111.003 34.5451C111.598 34.1808 111.939 33.5137 111.886 32.8177ZM114.991 38.8491V37.6948C114.997 37.5524 115.114 37.44 115.257 37.4401C116.163 37.508 117 36.9491 117.284 36.0854C117.331 35.9041 117.312 35.7117 117.229 35.5435L114.639 29.6801C114.594 29.6004 114.596 29.5028 114.643 29.4244C114.69 29.346 114.775 29.2988 114.867 29.3008H116.259C116.4 29.3008 116.487 29.4146 116.541 29.5555L118.167 33.3054C118.281 33.6035 118.465 33.5872 118.59 33.3054L120.139 29.5446C120.194 29.4037 120.264 29.317 120.405 29.317H121.743C121.827 29.3127 121.907 29.3513 121.955 29.4194C122.003 29.4876 122.014 29.5757 121.982 29.653L119.316 35.9607C118.346 38.2584 117.316 39.1146 115.257 39.1146C115.113 39.109 114.997 38.9934 114.991 38.8491Z" fill="#5A78FF"/>
<defs>
<linearGradient id="paint0_linear_3_284" x1="26.6958" y1="25.2535" x2="25.9907" y2="17.0272" gradientUnits="userSpaceOnUse">
<stop stop-color="#504678"/>
<stop offset="0.302" stop-color="#504678" stop-opacity="0.616"/>
<stop offset="0.608" stop-color="#504678" stop-opacity="0.283"/>
<stop offset="0.852" stop-color="#504678" stop-opacity="0.076"/>
<stop offset="1" stop-color="#504678" stop-opacity="0"/>
</linearGradient>
<linearGradient id="paint1_linear_3_284" x1="29.199" y1="31.1879" x2="29.6412" y2="40.4054" gradientUnits="userSpaceOnUse">
<stop stop-color="#504678"/>
<stop offset="0.302" stop-color="#504678" stop-opacity="0.616"/>
<stop offset="0.608" stop-color="#504678" stop-opacity="0.283"/>
<stop offset="0.852" stop-color="#504678" stop-opacity="0.076"/>
<stop offset="1" stop-color="#504678" stop-opacity="0"/>
</linearGradient>
<linearGradient id="paint2_linear_3_284" x1="20.7212" y1="31.9712" x2="29.3504" y2="26.0885" gradientUnits="userSpaceOnUse">
<stop stop-color="#504678"/>
<stop offset="0.179" stop-color="#504678" stop-opacity="0.872"/>
<stop offset="0.526" stop-color="#504678" stop-opacity="0.536"/>
<stop offset="1" stop-color="#504678" stop-opacity="0"/>
</linearGradient>
<linearGradient id="paint3_linear_3_284" x1="28.1242" y1="26.2207" x2="27.7415" y2="23.1593" gradientUnits="userSpaceOnUse">
<stop stop-color="#504678"/>
<stop offset="0.643" stop-color="#504678" stop-opacity="0.332"/>
<stop offset="1" stop-color="#504678" stop-opacity="0"/>
</linearGradient>
</defs>
</svg>

<svg xmlns="http://www.w3.org/2000/svg" width="128" height="64" fill="none"><rect width="128" height="64" fill="#fff" rx="6"/><path fill="#5A78FF" d="M20.07 50.689a3.162 3.162 0 0 1-2.922-1.95L6.241 22.408a3.158 3.158 0 0 1 1.709-4.126l11.424-4.732a3.157 3.157 0 0 1 4.125 1.71l10.906 26.33a3.158 3.158 0 0 1-1.708 4.124l-11.424 4.733c-.381.159-.79.24-1.204.241Zm.512-35.68c-.191.001-.38.04-.558.113L8.6 19.853a1.457 1.457 0 0 0-.788 1.904L18.718 48.09a1.46 1.46 0 0 0 1.905.789l11.423-4.735a1.457 1.457 0 0 0 .789-1.904L21.928 15.91a1.46 1.46 0 0 0-1.346-.9Z"/><path fill="url(#a)" d="m24.219 16.996-1.57.651 4.318 10.426 1.57-.651-4.318-10.426Z" opacity=".7" style="mix-blend-mode:multiply"/><path fill="url(#b)" d="m32.11 40.49 1.57-.65L28.79 28.04l-1.57.65 4.888 11.802Z" opacity=".7" style="mix-blend-mode:multiply"/><path fill="#5A78FF" d="M30.126 32.668c-3.267 1.355-5.995 3.222-7.781 5.473L17.74 27.02a19.446 19.446 0 0 1 7.78-5.473c3.268-1.355 6.569-2.01 9.373-1.628l4.606 11.121a19.437 19.437 0 0 0-9.373 1.63Z"/><g opacity=".4" style="mix-blend-mode:multiply"><path fill="url(#c)" d="M30.126 32.668c-3.267 1.355-5.995 3.222-7.781 5.473L17.74 27.02a19.446 19.446 0 0 1 7.78-5.473c3.268-1.355 6.569-2.01 9.373-1.628l4.606 11.121a19.437 19.437 0 0 0-9.373 1.63Z" opacity=".9"/><path fill="url(#d)" d="M30.126 32.668c-3.267 1.355-5.995 3.222-7.781 5.473L17.74 27.02a19.446 19.446 0 0 1 7.78-5.473c3.268-1.355 6.569-2.01 9.373-1.628l4.606 11.121a19.437 19.437 0 0 0-9.373 1.63Z" opacity=".7"/></g><path fill="#5A78FF" d="M31.627 36.059c-3.537 0-6.774.683-9.283 2.078V26.892a19.446 19.446 0 0 1 9.282-2.079c3.537 0 6.838.656 9.283 2.081V38.14a19.439 19.439 0 0 0-9.282-2.081Zm18.065.01 2.862-9.044a.298.298 0 0 1 .265-.228h1.436a.352.352 0 0 1 .282.228l2.227 5.706c.043.114.157.125.195 0l2.211-5.706a.352.352 0 0 1 .282-.228h1.436c.128.01.236.102.266.228l2.828 9.044a.217.217 0 0 1-.211.309h-1.707a.25.25 0 0 1-.255-.195l-1.815-5.874c-.027-.114-.157-.114-.195 0l-2.168 5.83a.32.32 0 0 1-.309.239H56.32c-.157 0-.239-.087-.298-.238l-2.211-5.831c-.044-.114-.157-.114-.184 0l-1.86 5.874a.255.255 0 0 1-.265.195h-1.625a.211.211 0 0 1-.185-.309Zm14.832-3.251a3.793 3.793 0 1 1 3.793 3.717 3.669 3.669 0 0 1-3.793-3.717Zm5.636 0a1.864 1.864 0 1 0-1.843 1.989 1.913 1.913 0 0 0 1.832-1.99h.01Zm5.289 2.975c-.141-.114-.266-.07-.266.124v.185c0 .142-.112.26-.254.265h-1.323a.276.276 0 0 1-.265-.265v-9.045a.276.276 0 0 1 .265-.265H75a.266.266 0 0 1 .255.265v2.58c0 .184.124.238.325.097a3.095 3.095 0 0 1 1.848-.618c1.929 0 3.408 1.626 3.408 3.718a3.555 3.555 0 0 1-3.468 3.717 2.883 2.883 0 0 1-1.918-.758Zm3.468-2.959a1.864 1.864 0 1 0-3.717 0 1.886 1.886 0 0 0 1.847 1.956 1.913 1.913 0 0 0 1.87-1.972v.016ZM82 27.453a1.084 1.084 0 1 1 2.168 0 1.084 1.084 0 0 1-2.168 0Zm.098 8.67v-6.557c0-.142.112-.26.255-.265h1.392a.276.276 0 0 1 .288.265v6.536a.277.277 0 0 1-.266.265h-1.414a.266.266 0 0 1-.255-.265v.021Zm3.484-2.146v-6.92c0-.142.113-.26.255-.265h1.393c.144.005.26.121.265.265v6.964c0 .45.195.748.688.748a.266.266 0 0 1 .266.265v1.154a.266.266 0 0 1-.266.255c-1.853 0-2.6-.607-2.6-2.466Zm3.387-1.116a3.663 3.663 0 1 1 7.327.027c0 .255-.07.466-.325.466h-4.845c-.125 0-.168.07-.157.184.12.85.88 1.459 1.734 1.393a1.723 1.723 0 0 0 1.338-.607.542.542 0 0 1 .45-.227h1.295c.228 0 .326.157.239.379a3.712 3.712 0 0 1-7.045-1.626l-.01.011Zm5.143-.65c.098 0 .14-.044.125-.157a1.626 1.626 0 0 0-1.626-1.323 1.67 1.67 0 0 0-1.626 1.285c-.027.097 0 .195.114.195h3.013Zm3.354 3.89v-9.044c0-.142.113-.26.255-.265h4.438c2.027 0 3.409 1.181 3.409 3.17 0 1.989-1.566 3.213-3.506 3.213H99.71a.233.233 0 0 0-.255.266v2.66a.276.276 0 0 1-.266.266h-1.463a.266.266 0 0 1-.26-.265Zm4.596-4.562a1.529 1.529 0 0 0 1.479-1.566 1.446 1.446 0 0 0-1.485-1.49h-2.368c-.168 0-.238.086-.238.254V31.3c0 .168.07.255.238.255l2.374-.016Zm4.188 1.279a3.584 3.584 0 0 1 3.496-3.718 2.84 2.84 0 0 1 1.875.721c.124.114.265.098.265-.07v-.185c0-.14.114-.254.255-.254h1.322c.144.005.26.12.266.265v4.65c0 .352.124.509.368.542.127.002.23.1.239.227v1.225a.239.239 0 0 1-.239.238c-.932 0-1.479-.265-1.788-.802-.087-.14-.184-.168-.325-.027a3.112 3.112 0 0 1-2.271.943 3.572 3.572 0 0 1-3.463-3.755Zm5.636 0a1.86 1.86 0 0 0-2.823-1.728 1.858 1.858 0 0 0-.883 1.728 1.858 1.858 0 1 0 3.706 0Zm3.105 6.031v-1.154a.266.266 0 0 1 .266-.255 1.979 1.979 0 0 0 2.027-1.355.781.781 0 0 0-.055-.541l-2.59-5.864a.254.254 0 0 1 .228-.38h1.392c.141 0 .228.115.282.255l1.626 3.75c.114.298.298.282.423 0l1.549-3.76c.055-.141.125-.228.266-.228h1.338a.244.244 0 0 1 .239.336l-2.666 6.308c-.97 2.297-2 3.154-4.059 3.154a.277.277 0 0 1-.266-.266Z"/><defs><linearGradient id="a" x1="26.696" x2="25.991" y1="25.253" y2="17.027" gradientUnits="userSpaceOnUse"><stop stop-color="#504678"/><stop offset=".302" stop-color="#504678" stop-opacity=".616"/><stop offset=".608" stop-color="#504678" stop-opacity=".283"/><stop offset=".852" stop-color="#504678" stop-opacity=".076"/><stop offset="1" stop-color="#504678" stop-opacity="0"/></linearGradient><linearGradient id="b" x1="29.199" x2="29.641" y1="31.188" y2="40.405" gradientUnits="userSpaceOnUse"><stop stop-color="#504678"/><stop offset=".302" stop-color="#504678" stop-opacity=".616"/><stop offset=".608" stop-color="#504678" stop-opacity=".283"/><stop offset=".852" stop-color="#504678" stop-opacity=".076"/><stop offset="1" stop-color="#504678" stop-opacity="0"/></linearGradient><linearGradient id="c" x1="20.721" x2="29.35" y1="31.971" y2="26.088" gradientUnits="userSpaceOnUse"><stop stop-color="#504678"/><stop offset=".179" stop-color="#504678" stop-opacity=".872"/><stop offset=".526" stop-color="#504678" stop-opacity=".536"/><stop offset="1" stop-color="#504678" stop-opacity="0"/></linearGradient><linearGradient id="d" x1="28.124" x2="27.741" y1="26.221" y2="23.159" gradientUnits="userSpaceOnUse"><stop stop-color="#504678"/><stop offset=".643" stop-color="#504678" stop-opacity=".332"/><stop offset="1" stop-color="#504678" stop-opacity="0"/></linearGradient></defs></svg>
